X: 35064
T: Rolling In The Barrel
R: reel
M: 4/4
K: Eminor
E2EE BEE2|B2AF DEFD|E2EE BEE2|B2Ad BEED|
E3E BEE2|B2AF DEFD|E2EE BEE2|B2Ad BEE2||
e2fe befe|d2df a2fd|e2fe befe|dBAd BEE2|
e2fe befe|d2df a2fd|efge fdeB|dBAd BEED||

